Numix-GalliumOS/scalable/status/audio-volume-high-symbolic.svg

<?xml version="1.0" encoding="UTF-8" standalone="no"?>
<svg
   xmlns:dc="http://purl.org/dc/elements/1.1/"
   xmlns:cc="http://creativecommons.org/ns#"
   xmlns:rdf="http://www.w3.org/1999/02/22-rdf-syntax-ns#"
   xmlns:svg="http://www.w3.org/2000/svg"
   xmlns="http://www.w3.org/2000/svg"
   xmlns:sodipodi="http://sodipodi.sourceforge.net/DTD/sodipodi-0.dtd"
   xmlns:inkscape="http://www.inkscape.org/namespaces/inkscape"
   width="16"
   viewBox="0 0 16 16"
   height="16"
   id="svg2"
   version="1.1"
   inkscape:version="0.91 r"
   sodipodi:docname="audio-volume-high-symbolic.svg">
  <metadata
     id="metadata30">
    <rdf:RDF>
      <cc:Work
         rdf:about="">
        <dc:format>image/svg+xml</dc:format>
        <dc:type
           rdf:resource="http://purl.org/dc/dcmitype/StillImage" />
        <dc:title></dc:title>
      </cc:Work>
    </rdf:RDF>
  </metadata>
  <sodipodi:namedview
     pagecolor="#ffffff"
     bordercolor="#666666"
     borderopacity="1"
     objecttolerance="10"
     gridtolerance="10"
     guidetolerance="10"
     inkscape:pageopacity="0"
     inkscape:pageshadow="2"
     inkscape:window-width="1215"
     inkscape:window-height="776"
     id="namedview28"
     showgrid="true"
     inkscape:zoom="38.125"
     inkscape:cx="8"
     inkscape:cy="8"
     inkscape:window-x="65"
     inkscape:window-y="24"
     inkscape:window-maximized="1"
     inkscape:current-layer="svg2"
     showguides="true"
     inkscape:snap-intersection-paths="false"
     inkscape:object-paths="false">
    <inkscape:grid
       type="xygrid"
       id="grid4158" />
  </sodipodi:namedview>
  <defs
     id="defs4" />
  <path
     d="M 6,2 2,6 2,10 6,14 6,9 7,8 6,7 Z"
     id="path18"
     inkscape:connector-curvature="0"
     style="fill:#bebebe"
     sodipodi:nodetypes="cccccccc" />
  <path
     d="M 1.300003,5 C 0.216589,5 0,6.163269 0,7.4 L 0,8.6 C 0,9.836747 0.24312,11 1.300003,11 L 3,11 3,5 Z"
     id="path20"
     inkscape:connector-curvature="0"
     style="fill:#bebebe"
     sodipodi:nodetypes="ssssccs" />
  <path
     style="opacity:1;fill:#bebebe;fill-opacity:1;fill-rule:evenodd;stroke:none;stroke-width:1px;stroke-linecap:butt;stroke-linejoin:miter;stroke-opacity:1"
     d="M 13.140638,1 11.726417,2.413582 C 12.808349,3.4955144 13.990412,5.4467621 14,8 c 0,2.551493 -1.192916,4.505751 -2.273583,5.586418 L 13.140638,15 C 14.595711,13.544927 16.019176,11 16,8 16.035061,5 14.595117,2.4544787 13.140638,1 Z"
     id="path4508"
     inkscape:connector-curvature="0"
     sodipodi:nodetypes="ccccccc" />
  <path
     style="opacity:1;fill:#bebebe;fill-opacity:1;fill-rule:evenodd;stroke:none;stroke-width:1px;stroke-linecap:butt;stroke-linejoin:miter;stroke-opacity:1"
     d="M 11,3.1156678 9.5897193,4.5261118 C 10.372347,5.3087395 11,6.5690611 11,8 11,9.4309388 10.372767,10.690952 9.5897193,11.474 L 11,12.884 C 12.275645,11.608355 13,9.854095 13,8 13,6.1543677 12.273068,4.3887355 11,3.1156678 Z"
     id="path4529"
     inkscape:connector-curvature="0"
     sodipodi:nodetypes="ccccccc" />
  <path
     style="opacity:1;fill:#bebebe;fill-opacity:1;fill-rule:evenodd;stroke:none;stroke-width:1px;stroke-linecap:butt;stroke-linejoin:miter;stroke-opacity:1"
     d="M 8.629,5 7.2094668,6.4096296 C 8,7.05621 8,7.805653 8,8 8,8.1932576 7.982199,8.9408674 7.209,9.59 L 8.6289063,11 C 9.8466375,9.952694 10,8.5984701 10,8 10,7.400497 9.854476,6.062891 8.629,5 Z"
     id="path4569"
     inkscape:connector-curvature="0"
     sodipodi:nodetypes="ccscccc" />
</svg>

<svg xmlns="http://www.w3.org/2000/svg" viewBox="0 0 16 16">
 <path d="M 6,2 2,6 2,10 6,14 6,9 7,8 6,7 Z" style="fill:#bebebe"/>
 <path d="m 1.3 5 c -1.083 0 -1.3 1.163 -1.3 2.4 l 0 1.2 c 0 1.237 0.243 2.4 1.3 2.4 l 1.7 0 0 -6" style="fill:#bebebe"/>
 <path d="m 13.14 1 -1.414 1.414 c 1.082 1.082 2.264 3.033 2.274 5.586 c 0 2.551 -1.193 4.506 -2.274 5.586 l 1.414 1.414 c 1.455 -1.455 2.879 -4 2.859 -7 0.035 -3 -1.405 -5.546 -2.859 -7" style="fill:#bebebe;opacity:1;fill-opacity:1;stroke:none;fill-rule:evenodd"/>
 <path d="m 11 3.116 -1.41 1.41 c 0.783 0.783 1.41 2.043 1.41 3.474 0 1.431 -0.627 2.691 -1.41 3.474 l 1.41 1.41 c 1.276 -1.276 2 -3.03 2 -4.884 0 -1.846 -0.727 -3.611 -2 -4.884" style="fill:#bebebe;opacity:1;fill-opacity:1;stroke:none;fill-rule:evenodd"/>
 <path d="m 8.629 5 -1.42 1.41 c 0.791 0.647 0.791 1.396 0.791 1.59 0 0.193 -0.018 0.941 -0.791 1.59 l 1.42 1.41 c 1.218 -1.047 1.371 -2.402 1.371 -3 0 -0.6 -0.146 -1.937 -1.371 -3" style="fill:#bebebe;opacity:1;fill-opacity:1;stroke:none;fill-rule:evenodd"/>
</svg>
